file/lucky.svg

<svg clip-rule="evenodd" fill-rule="evenodd" stroke-linejoin="round" stroke-miterlimit="1.41421" viewBox="0 0 560 400" xmlns="http://www.w3.org/2000/svg"><path d="m373.877 217.91c-1.854-5.849-2.18-24.925-2.18-24.925v-9.623l.431-12.129c.574-10.367.952-26.166.952-26.166.067-1.803-1.723-2.206-1.723-2.206-11.817-3.316-15.812 1.813-15.812 1.813-4.491 4.322-3.93 15.46-3.93 15.46.234 6.32-1.07 14.009-1.07 14.009-1.306 8.37-4.832 10.759-4.832 10.759-7.429 6.111-13.396.667-13.396.667-3.93-2.258-3.721-10.015-3.721-10.015v-18.005c.627-13.553-7.024-14.963-7.024-14.963-6.464-1.632-12.261.185-12.261.185s-2.023.444-2.076 2.128c-.103 3.276.51 15.094.51 15.094.509 11.255 2.754 23.62 2.754 23.62l-3.263 2.638c-5.862 4.048-9.114 5.119-9.114 5.119-5.053 2.52-8.839.443-8.839.443-4.27-1.946-12.078-11.071-12.078-11.071-2.206-2.299 1.058-2.417 1.058-2.417 11.582-.796 16.086-11.359 16.086-11.359 5.68-17.17-9.453-23.059-9.453-23.059-10.393-3.838-19.729 1.399-19.729 1.399-3.668 1.632-8.447 7.038-8.447 7.038-2.259 2.143-2.468-1.359-2.468-1.359v-39.418c-.181-11.32-14.298-9.857-14.298-9.857-5.731.296-5.574 1.632-5.574 1.632v46.86c.233 22.105-.562 24.076-.562 24.076-1.227 7.756-20.459 14.467-20.459 14.467-4.949 2.062-14.128 1.281-14.128 1.281-5.066-.392-6.907-4.608-6.907-4.608-3.382-4.439-2.311-19.181-2.311-19.181.237-12.612 9.662-11.307 9.662-11.307 5.353.222 4.622 9.557 4.622 9.557.666 8.095 10.576 6.973 10.576 6.973 6.189 0 5.627-5.275 5.627-5.275.222-8.343-1.579-16.204-1.579-16.204-2.925-9.909-23.398-7.533-23.398-7.533-14.506-.112-20.695 12.926-20.695 12.926-4.622 7.533-2.585 28.79-2.585 28.79-2.259 2.598-4.961 4.726-4.961 4.726s-9.558 6.424-12.926-.444c-3.382-6.855.887-40.828.887-40.828.457-2.924-.103-3.161-.103-3.161-2.468-3.486-11.36-2.587-11.36-2.587-9.113.111-9.231 10.563-9.231 10.563-1.566 25.891-4.713 29.469-4.713 29.469-4.623 9.348-13.84 5.653-13.84 5.653-3.278-.795-5.406-7.102-5.406-7.102-2.023-5.628-.9-20.46-.9-20.46 2.023-14.519-4.831-16.66-4.831-16.66-9.127-2.821-15.642.677-15.642.677-.223 15.524 3.825 40.384 3.825 40.384-3.943 4.714-7.768 5.627-11.033 5.288-3.264-.333-5.732-1.684-9.779-3.369-4.048-1.698-6.634-2.375-6.634-2.375-3.381-1.462-9.23-1.24-9.23-1.24-2.925-.666 0-2.247 0-2.247 8.108-7.416 6.972-13.265 7.664-13.709.666-.459.444-41.677.444-41.677l.444-29.913c0-2.258.678-2.939.678-2.939s.666-6.516 6.529-8.331c13.931-4.269 13.148 11.034 13.148 11.034s-2.585 18.788 8.892 16.19c0 0 7.651-.333 9.57-3.917 0 0 .666-9.896-1.475-22.288-2.142-12.377-14.95-11.933-14.95-11.933s-16.869-1.892-29.142 10.588c-12.6 12.836-14.389 36.181-14.389 36.181s-1.005 41.246.207 52.396c.901 8.213-2.468 8.552-2.468 8.552s.51 1.451-4.386-.784c-6.412-2.939-13.606 1.684-13.606 1.684s-14.297 8.539-10.132 14.95c0 0 6.411 10.354 14.846 7.886 0 0 5.301-.444 11.137-6.646 5.85-6.188 18.005.444 18.005.444s18.332 9.793 25.422 5.406c0 0 6.045-2.34 12.482-8.213 2.481-2.246 3.264.796 3.264.796s5.967 11.907 20.251 8.33c14.297-3.616 18.684-16.987 18.684-16.987s.888-2.582 1.566 0c.666 2.573 2.729 21.752 20.238 17.431 7.325-1.803 15.198-11.033 15.198-11.033s.458-1.343 1.358-.221c.888 1.136 11.36 17 33.856 10.145 0 0 16.164-5.615 22.718-13.618 2.024-2.469 2.024.454 2.024.454l.444 10.002s-.207 3.498 3.722 3.498h12.377s3.473.666 3.382-4.609l.092-17.797s.352-2.35 1.698-1.11c1.345 1.214 2.468 2.587 2.468 2.587l.9 1.018c8.553 10.798 17.562 17.365 17.562 17.365 6.789 5.236 15.119 3.498 15.119 3.498 7.142-.456 20.251-10.811 20.251-10.811 2.024-1.632 2.937.074 2.937.074 7.587 11.816 19.116 10.902 19.116 10.902 11.307.222 17.874-10.797 17.874-10.797.419-.956.967-.734.967-.734 1.802 1.425 1.188 5.119 1.188 5.119-.627 4.896.04 21.778.04 21.778.119 7.272 6.816 6.411 6.816 6.411 5.783-.296 10.471-1.751 10.471-1.751 3.76-.562 2.011-7.416 2.011-7.416zm-105.458-46.147v-.008c-1.358.392-12.534.074-12.534.074-1.698-.404-1.868-1.137-1.933-2.562-.04-1.45.862-2.231.862-2.231l9.557-9.506c2.69-2.587 7.756-2.205 7.756-2.205s5.405-.074 6.032 6.919c.81 9.388-9.74 9.519-9.74 9.519zm116.009 29.26c0-.796-.326-1.347-.927-1.606-.353-.148-.888-.222-1.619-.222l-2.077-.025v6.345h1.005v-2.505h.836c.562 0 .955.074 1.162.222.393.233.575.729.575 1.462v.496l.025.185v.074c.014.037.027.061.027.074h.992l-.052-.074c-.012-.038-.039-.148-.052-.333-.013-.174-.013-.322-.013-.47v-.455c0-.315-.104-.659-.325-.992-.196-.319-.549-.54-.993-.615.366-.074.653-.184.849-.295.391-.274.587-.692.587-1.266zm-1.632 1.078c-.235.11-.562.148-1.032.148h-.953v-2.259h.901c.588 0 1.03.075 1.293.223l-.001-.022c.276.159.406.474.406.928 0 .486-.209.797-.614.982zm2.99-3.813c-1.044-1.122-2.324-1.684-3.812-1.684-1.462 0-2.742.562-3.774 1.684-1.057 1.137-1.579 2.481-1.579 4.087s.522 2.964 1.566 4.086c1.031 1.136 2.311 1.699 3.786 1.699 1.489 0 2.768-.563 3.813-1.699 1.045-1.122 1.58-2.48 1.58-4.086 0-1.618-.535-2.965-1.58-4.087zm-.509 7.624c-.901.977-1.998 1.462-3.29 1.462-1.293 0-2.39-.481-3.291-1.462-.887-.966-1.345-2.154-1.345-3.538 0-1.369.458-2.547 1.358-3.512.901-.966 1.998-1.463 3.278-1.463 1.292 0 2.389.497 3.29 1.463.888.965 1.345 2.142 1.345 3.512 0 1.384-.457 2.572-1.345 3.538z" fill="#ef3d42" fill-rule="nonzero" transform="matrix(.960685 0 0 .960685 87.863 55.8975)"/></svg>

<?xml version="1.0" encoding="UTF-8" standalone="no"?>
<!DOCTYPE svg PUBLIC "-//W3C//DTD SVG 1.1//EN" "http://www.w3.org/Graphics/SVG/1.1/DTD/svg11.dtd">
<svg width="100%" height="100%" viewBox="0 0 560 400" version="1.1" xmlns="http://www.w3.org/2000/svg" xmlns:xlink="http://www.w3.org/1999/xlink" xml:space="preserve" xmlns:serif="http://www.serif.com/" style="fill-rule:evenodd;clip-rule:evenodd;stroke-linejoin:round;stroke-miterlimit:1.41421;">
    <g id="red" transform="matrix(0.960685,0,0,0.960685,87.863,55.8975)">
        <path d="M373.877,217.91C372.023,212.061 371.697,192.985 371.697,192.985L371.697,183.362L372.128,171.233C372.702,160.866 373.08,145.067 373.08,145.067C373.147,143.264 371.357,142.861 371.357,142.861C359.54,139.545 355.545,144.674 355.545,144.674C351.054,148.996 351.615,160.134 351.615,160.134C351.849,166.454 350.545,174.143 350.545,174.143C349.239,182.513 345.713,184.902 345.713,184.902C338.284,191.013 332.317,185.569 332.317,185.569C328.387,183.311 328.596,175.554 328.596,175.554L328.596,157.549C329.223,143.996 321.572,142.586 321.572,142.586C315.108,140.954 309.311,142.771 309.311,142.771C309.311,142.771 307.288,143.215 307.235,144.899C307.132,148.175 307.745,159.993 307.745,159.993C308.254,171.248 310.499,183.613 310.499,183.613L307.236,186.251C301.374,190.299 298.122,191.37 298.122,191.37C293.069,193.89 289.283,191.813 289.283,191.813C285.013,189.867 277.205,180.742 277.205,180.742C274.999,178.443 278.263,178.325 278.263,178.325C289.845,177.529 294.349,166.966 294.349,166.966C300.029,149.796 284.896,143.907 284.896,143.907C274.503,140.069 265.167,145.306 265.167,145.306C261.499,146.938 256.72,152.344 256.72,152.344C254.461,154.487 254.252,150.985 254.252,150.985L254.252,111.567C254.071,100.247 239.954,101.71 239.954,101.71C234.223,102.006 234.38,103.342 234.38,103.342L234.38,150.202C234.613,172.307 233.818,174.278 233.818,174.278C232.591,182.034 213.359,188.745 213.359,188.745C208.41,190.807 199.231,190.026 199.231,190.026C194.165,189.634 192.324,185.418 192.324,185.418C188.942,180.979 190.013,166.237 190.013,166.237C190.25,153.625 199.675,154.93 199.675,154.93C205.028,155.152 204.297,164.487 204.297,164.487C204.963,172.582 214.873,171.46 214.873,171.46C221.062,171.46 220.5,166.185 220.5,166.185C220.722,157.842 218.921,149.981 218.921,149.981C215.996,140.072 195.523,142.448 195.523,142.448C181.017,142.336 174.828,155.374 174.828,155.374C170.206,162.907 172.243,184.164 172.243,184.164C169.984,186.762 167.282,188.89 167.282,188.89C167.282,188.89 157.724,195.314 154.356,188.446C150.974,181.591 155.243,147.618 155.243,147.618C155.7,144.694 155.14,144.457 155.14,144.457C152.672,140.971 143.78,141.87 143.78,141.87C134.667,141.981 134.549,152.433 134.549,152.433C132.983,178.324 129.836,181.902 129.836,181.902C125.213,191.25 115.996,187.555 115.996,187.555C112.718,186.76 110.59,180.453 110.59,180.453C108.567,174.825 109.69,159.993 109.69,159.993C111.713,145.474 104.859,143.333 104.859,143.333C95.732,140.512 89.217,144.01 89.217,144.01C88.994,159.534 93.042,184.394 93.042,184.394C89.099,189.108 85.274,190.021 82.009,189.682C78.745,189.349 76.277,187.998 72.23,186.313C68.182,184.615 65.596,183.938 65.596,183.938C62.215,182.476 56.366,182.698 56.366,182.698C53.441,182.032 56.366,180.451 56.366,180.451C64.474,173.035 63.338,167.186 64.03,166.742C64.696,166.283 64.474,125.065 64.474,125.065L64.918,95.152C64.918,92.894 65.596,92.213 65.596,92.213C65.596,92.213 66.262,85.697 72.125,83.882C86.056,79.613 85.273,94.916 85.273,94.916C85.273,94.916 82.688,113.704 94.165,111.106C94.165,111.106 101.816,110.773 103.735,107.189C103.735,107.189 104.401,97.293 102.26,84.901C100.118,72.524 87.31,72.968 87.31,72.968C87.31,72.968 70.441,71.076 58.168,83.556C45.568,96.392 43.779,119.737 43.779,119.737C43.779,119.737 42.774,160.983 43.986,172.133C44.887,180.346 41.518,180.685 41.518,180.685C41.518,180.685 42.028,182.136 37.132,179.901C30.72,176.962 23.526,181.585 23.526,181.585C23.526,181.585 9.229,190.124 13.394,196.535C13.394,196.535 19.805,206.889 28.24,204.421C28.24,204.421 33.541,203.977 39.377,197.775C45.227,191.587 57.382,198.219 57.382,198.219C57.382,198.219 75.714,208.012 82.804,203.625C82.804,203.625 88.849,201.285 95.286,195.412C97.767,193.166 98.55,196.208 98.55,196.208C98.55,196.208 104.517,208.115 118.801,204.538C133.098,200.922 137.485,187.551 137.485,187.551C137.485,187.551 138.373,184.969 139.051,187.551C139.717,190.124 141.78,209.303 159.289,204.982C166.614,203.179 174.487,193.949 174.487,193.949C174.487,193.949 174.945,192.606 175.845,193.728C176.733,194.864 187.205,210.728 209.701,203.873C209.701,203.873 225.865,198.258 232.419,190.255C234.443,187.786 234.443,190.709 234.443,190.709L234.887,200.711C234.887,200.711 234.68,204.209 238.609,204.209L250.986,204.209C250.986,204.209 254.459,204.875 254.368,199.6L254.46,181.803C254.46,181.803 254.812,179.453 256.158,180.693C257.503,181.907 258.626,183.28 258.626,183.28L259.526,184.298C268.079,195.096 277.088,201.663 277.088,201.663C283.877,206.899 292.207,205.161 292.207,205.161C299.349,204.705 312.458,194.35 312.458,194.35C314.482,192.718 315.395,194.424 315.395,194.424C322.982,206.24 334.511,205.326 334.511,205.326C345.818,205.548 352.385,194.529 352.385,194.529C352.804,193.573 353.352,193.795 353.352,193.795C355.154,195.22 354.54,198.914 354.54,198.914C353.913,203.81 354.58,220.692 354.58,220.692C354.699,227.964 361.396,227.103 361.396,227.103C367.179,226.807 371.867,225.352 371.867,225.352C375.627,224.79 373.878,217.936 373.878,217.936L373.877,217.91ZM268.419,171.763L268.419,171.755C267.061,172.147 255.885,171.829 255.885,171.829C254.187,171.425 254.017,170.692 253.952,169.267C253.912,167.817 254.814,167.036 254.814,167.036L264.371,157.53C267.061,154.943 272.127,155.325 272.127,155.325C272.127,155.325 277.532,155.251 278.159,162.244C278.969,171.632 268.419,171.763 268.419,171.763ZM384.428,201.023C384.428,200.227 384.102,199.676 383.501,199.417C383.148,199.269 382.613,199.195 381.882,199.195L379.805,199.17L379.805,205.515L380.81,205.515L380.81,203.01L381.646,203.01C382.208,203.01 382.601,203.084 382.808,203.232C383.201,203.465 383.383,203.961 383.383,204.694L383.383,205.19L383.408,205.375L383.408,205.449C383.422,205.486 383.435,205.51 383.435,205.523L384.427,205.523L384.375,205.449C384.363,205.411 384.336,205.301 384.323,205.116C384.31,204.942 384.31,204.794 384.31,204.646L384.31,204.191C384.31,203.876 384.206,203.532 383.985,203.199C383.789,202.88 383.436,202.659 382.992,202.584C383.358,202.51 383.645,202.4 383.841,202.289C384.232,202.015 384.428,201.597 384.428,201.023ZM382.796,202.101C382.561,202.211 382.234,202.249 381.764,202.249L380.811,202.249L380.811,199.99L381.712,199.99C382.3,199.99 382.742,200.065 383.005,200.213L383.004,200.191C383.28,200.35 383.41,200.665 383.41,201.119C383.41,201.605 383.201,201.916 382.796,202.101ZM385.786,198.288C384.742,197.166 383.462,196.604 381.974,196.604C380.512,196.604 379.232,197.166 378.2,198.288C377.143,199.425 376.621,200.769 376.621,202.375C376.621,203.981 377.143,205.339 378.187,206.461C379.218,207.597 380.498,208.16 381.973,208.16C383.462,208.16 384.741,207.597 385.786,206.461C386.831,205.339 387.366,203.981 387.366,202.375C387.366,200.757 386.831,199.41 385.786,198.288ZM385.277,205.912C384.376,206.889 383.279,207.374 381.987,207.374C380.694,207.374 379.597,206.893 378.696,205.912C377.809,204.946 377.351,203.758 377.351,202.374C377.351,201.005 377.809,199.827 378.709,198.862C379.61,197.896 380.707,197.399 381.987,197.399C383.279,197.399 384.376,197.896 385.277,198.862C386.165,199.827 386.622,201.004 386.622,202.374C386.622,203.758 386.165,204.946 385.277,205.912Z" style="fill:rgb(239,61,66);fill-rule:nonzero;"/>
    </g>
</svg>
